!!!COM: Anonymous
!!!OTL: La plus mignonne de mon cueur
!!!AGN: Song; Chanson; Rondeau
!!!SCT: Ano3111
!!!SCA: Ano3111
!!!SMS: Dijon Chansonnier
!!!folio: 105v-106r
!!!SMS2: BQ16
!!!SMS3: Cop
!!!voices: 3
**kern	**kern	**kern
*staff3	*staff2	*staff1
*Ivox	*Ivox	*Ivox
*I"Contra	*I"Tenor	*I"Discantus
*I'C	*I'T	*I'D
*clefF4	*clefGv2	*clefG2
*k[b-e-]	*k[b-e-]	*k[b-e-]
*M2/1	*M2/1	*M2/1
*met(C|)	*met(C|)	*met(C|)
=1-	=1-	=1-
!!LO:TX:X=-40:Z=8:t=Edition mainly follows BQ16
1G	1G	0g
[1C	[1c	.
=2	=2	=2
2C]	2c]	1e-
2E-	2G	.
1D	1A	1f
=3	=3	=3
2E-	1G	1.g
1C	.	.
.	1c	.
2F	.	4f
.	.	4e-
=4	=4	=4
0G	1.B-	0d
.	4A	.
.	4G	.
=5	=5	=5
1D	1F	1.a
1AA	1c	.
.	.	4g
.	.	4a
=6	=6	=6
1GG	0d	1.b-
2G	.	.
2E-	.	[2a
=7	=7	=7
2F	1c	2a]
2C	.	2g
1E-	1B-	[1g
=8	=8	=8
1F	0A	2g]
.	.	2e-
1D	.	1f#i
=9	=9	=9
2E-	0G	0g
2C	.	.
2BB-	.	.
2C	.	.
=10	=10	=10
0GG	0B-	1r
.	.	1g
=11	=11	=11
0G	1r	1.b-
.	1E-	.
.	.	4a
.	.	4g
=12	=12	=12
0r	1D	0f
.	1d	.
=13	=13	=13
0C	2c	0e-
.	1c	.
.	2B-	.
=14	=14	=14
1GG	0d	1d
1D	.	[1f
=15	=15	=15
1BB-	1D	2f]
.	.	2e-
2C	[1E-	2c
2G	.	2B-
=16	=16	=16
2C	2E-]	2e-
2D	2F	2d
2GG	2G	[1d
2BB-	2D	.
=17	=17	=17
0AA	1E-	2d]
.	.	2c
.	1E-	2c
.	.	2B-
=18	=18	=18
1BB-	[0DN	0dN
[1GGN	.	.
=19	=19	=19
2GG]	0D]	0r
1BB-	.	.
2D	.	.
=20	=20	=20
[0E-	0r	0g
=21	=21	=21
1E-]	0G	1b-
1B-	.	1b-
=22	=22	=22
0d	1B-	1.f
.	1B-	.
.	.	2g
=23	=23	=23
0c	1.F	2a
.	.	2b-
.	.	[1cc
.	2G	.
=24	=24	=24
2F	2A	2cc]
2G	2B-	2b-
1E-	1c	1g
=25	=25	=25
1D	0d	1f
1G	.	[1b-
=26	=26	=26
1E-	0e-	2b-]
.	.	4a
.	.	4b-
2r	.	1cc
[2C	.	.
=27	=27	=27
2C]	1e-	2cc
2E-	.	2b-
2G	1d	[1b-
2D	.	.
=28	=28	=28
2F	0c	2b-]
2C	.	2a
1F	.	2a
.	.	2g
=29	=29	=29
[0BB-	[0B-	0b-
=30	=30	=30
0BB-]	0B-]	1r
.	.	1f
=31	=31	=31
1E-	1r	1g
1D	1F	1a
=32	=32	=32
2d	1G	1b-
2B-	.	.
1c	1A	2.a
.	.	4g
=33	=33	=33
1d	1B-	1f
[1c	2.A	[1cc
.	4G	.
=34	=34	=34
1c]	1F	2cc]
.	.	4b-
.	.	4a
[1C	[1c	[1g
=35	=35	=35
1C]	2c]	2g]
.	4B-	2a
.	4A	.
1r	[1G	[1b-
=36	=36	=36
1r	2G]	2b-]
.	2A	2a
2BB-	1B-	2f
2E-	.	[2g
=37	=37	=37
2C	1c	2g]
2E-	.	2e-
2D	2d	2f
2F	2D	2a-i
=38	=38	=38
1C	2E-	4g
.	.	4f
.	2G	2e-
1D	1F	2.d
.	.	4c
=39	=39	=39
1AA-	1E-	1e-
[1GG	1B-	1r
=40	=40	=40
1GG]	1G	1b-
1r	2c	1g
.	[2c	.
=41	=41	=41
1C	2c]	2cc
.	2e-	1cc
1G	1d	.
.	.	2bni
=42	=42	=42
1C	1c	1cc
1D	2r	1a
.	2F	.
=43	=43	=43
1.GG	1.G	2g
.	.	1b-
2AA	2F	2a
=44	=44	=44
1BB-	1D	4f
.	.	4e-
.	.	2f
2G	2E-	2g
[2A	[2F	2f
=45	=45	=45
2A]	2F]	1d
2B-	1G	.
1E-	.	1g
.	2c	.
=46	=46	=46
2D	1d	2f
1G	.	1b-
.	2B-	.
2F	[2c	[2a
=47	=47	=47
2C	2c]	4a]
.	.	4g
2GG	2B-	1g
1D	1A	.
.	.	2f#i
=48	=48	=48
0GGl	0Gl	0gl
==	==	==
*-	*-	*-
!!!RDF**kern: l=long note in original notation
!!!RDF**kern: i=editorial accidental
!!!RDF**kern: N=signum congruentiae
!!!ENC: Chris Gage 09-14-2016
!!!END: 2018/09/28
!!!EED: Jesse Rodin
!!!EEV: 2018/11/29
!!!ONB: Translated from MusicXML and edited on 2018/11/29 by Craig Sapp
!!muse2ps: C^@{COM}\n@{SMS}, @{folio}, also @{SMS2}, @{SMS3}^v95,95,150c160
